src/topics/icons/parsehub.svg

<svg height="256" preserveAspectRatio="xMidYMid" viewBox="0 0 256 256" width="256" xmlns="http://www.w3.org/2000/svg"><path d="m64.0457143 126.72c0-36.6994286 29.8587428-66.56 66.5599997-66.56 36.699429 0 66.56 29.8605714 66.56 66.56 0 36.701257-29.860571 66.56-66.56 66.56-36.7012569 0-66.5599997-29.858743-66.5599997-66.56z" fill="#21bbd1"/><path d="m256 20.48c0-11.264-9.879771-20.48-21.143771-20.48h-104.250515c-70.6907426 0-130.605714 56.0274286-130.605714 126.72v129.28h31.0857143v-129.28c0-53.6393143 44.7616-97.28 98.4009147-97.28 53.639314 0 97.837714 43.6388571 97.837714 97.28 0 53.639314-44.297143 97.28-97.936457 97.28-25.735315 0-52.587886-10.0608-67.2164574-26.432v58.432h68.4342854c70.692572 0 125.394286-58.587429 125.394286-129.28z" fill="#20222d"/></svg>

<?xml version="1.0" encoding="UTF-8" standalone="no"?>
<svg width="256px" height="256px" viewBox="0 0 256 256" version="1.1" xmlns="http://www.w3.org/2000/svg" xmlns:xlink="http://www.w3.org/1999/xlink" preserveAspectRatio="xMidYMid">
	<g>
		<path d="M64.0457143,126.72 C64.0457143,90.0205714 93.9044571,60.16 130.605714,60.16 C167.305143,60.16 197.165714,90.0205714 197.165714,126.72 C197.165714,163.421257 167.305143,193.28 130.605714,193.28 C93.9044571,193.28 64.0457143,163.421257 64.0457143,126.72 L64.0457143,126.72 Z" fill="#21BBD1"></path>
		<path d="M256,20.48 C256,9.216 246.120229,0 234.856229,0 L130.605714,0 C59.9149714,0 0,56.0274286 0,126.72 L0,256 L31.0857143,256 L31.0857143,126.72 C31.0857143,73.0806857 75.8473143,29.44 129.486629,29.44 C183.125943,29.44 227.324343,73.0788571 227.324343,126.72 C227.324343,180.359314 183.0272,224 129.387886,224 C103.652571,224 76.8,213.9392 62.1714286,197.568 L62.1714286,256 L130.605714,256 C201.298286,256 256,197.412571 256,126.72 L256,20.48 L256,20.48 Z" fill="#20222D"></path>
	</g>
</svg>
